X:11
T:Ellőtték a jobb karomat, folyik piros vérem
M:4/4
L:1/4
K:F
dAfe | d<A d<c | FG B<A | D2 D z |
dAfe | d<A d<c | FG B<A | D2 D z |
f<e d/A/d/e/ | f2 g2 |
fdfe | d<A d<c | F<G B<A | D2 D z |

